src/svg/36/services_outline_36.svg

<svg fill="none" height="36" viewBox="0 0 36 36" width="36" xmlns="http://www.w3.org/2000/svg"><g clip-rule="evenodd" fill="currentColor" fill-rule="evenodd"><path d="m31.6051 7.13567-2.7408-2.74075c-.8518-.85187-1.3933-1.21807-2.1192-1.43809-.6786-.20567-1.3831-.20567-2.0616 0-.7259.22002-1.2674.58622-2.1193 1.43809l-2.7407 2.74075c-.8519.85187-1.2181 1.39335-1.4381 2.11924-.2057.67856-.2057 1.38309 0 2.06159.22.7259.5862 1.2674 1.4381 2.1193l2.7407 2.7407c.8519.8519 1.3934 1.2181 2.1193 1.4381.6785.2057 1.383.2057 2.0616 0 .7259-.22 1.2674-.5862 2.1192-1.4381l2.7408-2.7407c.8519-.8519 1.2181-1.3934 1.4381-2.1193.2056-.6785.2056-1.38303 0-2.06159-.22-.72589-.5862-1.26737-1.4381-2.11924zm-1.7678 1.76776c.585.585.7288.79756.8134 1.07664.0623.20573.0623.40553 0 .61133-.0781.2576-.2066.4585-.686.948l-2.8681 2.8694c-.585.585-.7976.7287-1.0767.8133-.2057.0624-.4055.0624-.6113 0-.2791-.0846-.4916-.2283-1.0766-.8133l-2.7408-2.7408c-.585-.585-.7287-.7975-.8133-1.0766-.0624-.2058-.0624-.4056 0-.61133.0781-.25762.2066-.45854.686-.94805l2.8681-2.86933c.585-.585.7975-.72875 1.0766-.81334.2058-.06236.4056-.06236.6113 0 .2577.07808.4586.20657.9481.686z"/><path d="m12.2237 3.89287h-3.87599c-1.20472 0-1.84656.12394-2.51541.48165-.62524.33438-1.12341.83255-1.45779 1.45779-.35771.66885-.48165 1.31069-.48165 2.51542v3.87597c0 1.2048.12394 1.8466.48165 2.5154.33438.6253.83255 1.1235 1.45779 1.4578.66885.3577 1.31069.4817 2.51541.4817h3.87599c1.2047 0 1.8466-.124 2.5154-.4817.6253-.3343 1.1234-.8325 1.4578-1.4578.3577-.6688.4817-1.3106.4817-2.5154v-3.87597c0-1.20473-.124-1.84657-.4817-2.51542-.3344-.62524-.8325-1.12341-1.4578-1.45779-.6688-.35771-1.3107-.48165-2.5154-.48165zm-4.05696 2.50088 4.05696-.00088c.8273 0 1.0793.04865 1.3364.18618.1896.10139.3309.24269.4323.43226.1375.25716.1862.5091.1862 1.33642v3.87597c0 .8273-.0487 1.0793-.1862 1.3364-.1014.1896-.2427.3309-.4323.4323-.2571.1375-.5091.1862-1.3364.1862h-3.87599c-.82731 0-1.07925-.0487-1.33641-.1862-.18957-.1014-.33088-.2427-.43226-.4323-.12695-.2373-.17817-.4703-.1853-1.1554l-.00088-4.05697c0-.82732.04865-1.07926.18618-1.33642.10138-.18957.24269-.33087.43226-.43226.23738-.12695.47031-.17817 1.15544-.1853z"/><path d="m12.2237 19.3214h-3.87599c-1.20472 0-1.84656.124-2.51541.4817-.62524.3344-1.12341.8325-1.45779 1.4578-.35771.6688-.48165 1.3107-.48165 2.5154v3.876c0 1.2047.12394 1.8466.48165 2.5154.33438.6253.83255 1.1234 1.45779 1.4578.66885.3577 1.31069.4817 2.51541.4817h3.87599c1.2047 0 1.8466-.124 2.5154-.4817.6253-.3344 1.1234-.8325 1.4578-1.4578.3577-.6688.4817-1.3107.4817-2.5154v-3.876c0-1.2047-.124-1.8466-.4817-2.5154-.3344-.6253-.8325-1.1234-1.4578-1.4578-.6688-.3577-1.3107-.4817-2.5154-.4817zm-4.05696 2.5009 4.05696-.0009c.8273 0 1.0793.0487 1.3364.1862.1896.1014.3309.2427.4323.4323.1375.2571.1862.5091.1862 1.3364v3.876c0 .8273-.0487 1.0793-.1862 1.3364-.1014.1896-.2427.3309-.4323.4323-.2571.1375-.5091.1862-1.3364.1862h-3.87599c-.82731 0-1.07925-.0487-1.33641-.1862-.18957-.1014-.33088-.2427-.43226-.4323-.12695-.2374-.17817-.4703-.1853-1.1554l-.00088-4.057c0-.8273.04865-1.0793.18618-1.3364.10138-.1896.24269-.3309.43226-.4323.23738-.1269.47031-.1781 1.15544-.1853z"/><path d="m23.7763 19.3214h3.876c1.2047 0 1.8465.124 2.5154.4817.6252.3344 1.1234.8325 1.4578 1.4578.3577.6688.4816 1.3107.4816 2.5154v3.876c0 1.2047-.1239 1.8466-.4816 2.5154-.3344.6253-.8326 1.1234-1.4578 1.4578-.6689.3577-1.3107.4817-2.5154.4817h-3.876c-1.2047 0-1.8466-.124-2.5154-.4817-.6253-.3344-1.1234-.8325-1.4578-1.4578-.3577-.6688-.4817-1.3107-.4817-2.5154v-3.876c0-1.2047.124-1.8466.4817-2.5154.3344-.6253.8325-1.1234 1.4578-1.4578.6688-.3577 1.3107-.4817 2.5154-.4817zm3.876 2.5-4.057.0009c-.6851.0072-.9181.0584-1.1554.1853-.1896.1014-.3309.2427-.4323.4323-.1375.2571-.1862.5091-.1862 1.3364l.0009 4.057c.0071.6851.0584.918.1853 1.1554.1014.1896.2427.3309.4323.4323.2571.1375.5091.1862 1.3364.1862h3.876c.8273 0 1.0792-.0487 1.3364-.1862.1896-.1014.3309-.2427.4323-.4323.1375-.2571.1861-.5091.1861-1.3364l-.0008-4.057c-.0072-.6851-.0584-.918-.1853-1.1554-.1014-.1896-.2427-.3309-.4323-.4323-.2572-.1375-.5091-.1862-1.3364-.1862z"/></g></svg>

<svg width="36" height="36" viewBox="0 0 36 36" fill="none" xmlns="http://www.w3.org/2000/svg">
<path fill-rule="evenodd" clip-rule="evenodd" d="M31.6051 7.13565L28.8643 4.39491C28.0124 3.54303 27.471 3.17683 26.7451 2.95682C26.0665 2.75115 25.362 2.75115 24.6834 2.95682C23.9575 3.17683 23.4161 3.54303 22.5642 4.39491L19.8234 7.13565C18.9716 7.98752 18.6054 8.52901 18.3854 9.25489C18.1797 9.93345 18.1797 10.638 18.3854 11.3165C18.6054 12.0424 18.9716 12.5839 19.8234 13.4358L22.5642 16.1765C23.4161 17.0284 23.9575 17.3946 24.6834 17.6146C25.362 17.8203 26.0665 17.8203 26.7451 17.6146C27.471 17.3946 28.0124 17.0284 28.8643 16.1765L31.6051 13.4358C32.4569 12.5839 32.8231 12.0424 33.0431 11.3165C33.2488 10.638 33.2488 9.93345 33.0431 9.25489C32.8231 8.52901 32.4569 7.98752 31.6051 7.13565ZM29.8373 8.90342C30.4223 9.48842 30.566 9.70097 30.6506 9.98006C30.713 10.1858 30.713 10.3856 30.6506 10.5914C30.5725 10.849 30.4441 11.0499 29.9646 11.5394L27.0965 14.4088C26.5115 14.9938 26.299 15.1375 26.0199 15.2221C25.8142 15.2844 25.6143 15.2844 25.4086 15.2221C25.1295 15.1375 24.917 14.9938 24.332 14.4088L21.5912 11.668C21.0062 11.083 20.8625 10.8705 20.7779 10.5914C20.7155 10.3856 20.7155 10.1858 20.7779 9.98006C20.856 9.72244 20.9844 9.52151 21.4639 9.03201L24.332 6.16267C24.917 5.57767 25.1295 5.43393 25.4086 5.34934C25.6143 5.28698 25.8142 5.28698 26.0199 5.34934C26.2775 5.42742 26.4784 5.55591 26.968 6.03533L29.8373 8.90342ZM12.2237 3.89285H8.34768C7.14295 3.89285 6.50112 4.0168 5.83227 4.3745C5.20702 4.70889 4.70886 5.20706 4.37447 5.8323C4.01677 6.50115 3.89282 7.14298 3.89282 8.34771V12.2237C3.89282 13.4284 4.01677 14.0703 4.37447 14.7391C4.70886 15.3644 5.20702 15.8625 5.83227 16.1969C6.50112 16.5546 7.14295 16.6786 8.34768 16.6786H12.2237C13.4284 16.6786 14.0702 16.5546 14.7391 16.1969C15.3643 15.8625 15.8625 15.3644 16.1969 14.7391C16.5546 14.0703 16.6785 13.4284 16.6785 12.2237V8.34771C16.6785 7.14298 16.5546 6.50115 16.1969 5.8323C15.8625 5.20706 15.3643 4.70889 14.7391 4.3745C14.0702 4.0168 13.4284 3.89285 12.2237 3.89285ZM8.16671 6.39374L12.2237 6.39285C13.051 6.39285 13.3029 6.44151 13.5601 6.57904C13.7497 6.68042 13.891 6.82172 13.9924 7.0113C14.1299 7.26846 14.1785 7.5204 14.1785 8.34771V12.2237C14.1785 13.051 14.1299 13.303 13.9924 13.5601C13.891 13.7497 13.7497 13.891 13.5601 13.9924C13.3029 14.1299 13.051 14.1786 12.2237 14.1786H8.34768C7.52036 14.1786 7.26842 14.1299 7.01126 13.9924C6.82169 13.891 6.68039 13.7497 6.579 13.5601C6.45205 13.3228 6.40083 13.0898 6.3937 12.4047L6.39282 8.34771C6.39282 7.5204 6.44147 7.26846 6.579 7.0113C6.68039 6.82172 6.82169 6.68042 7.01126 6.57904C7.24864 6.45209 7.48157 6.40087 8.16671 6.39374ZM12.2237 19.3214H8.34768C7.14295 19.3214 6.50112 19.4454 5.83227 19.8031C5.20702 20.1375 4.70886 20.6356 4.37447 21.2609C4.01677 21.9297 3.89282 22.5716 3.89282 23.7763V27.6523C3.89282 28.857 4.01677 29.4988 4.37447 30.1677C4.70886 30.7929 5.20702 31.2911 5.83227 31.6255C6.50112 31.9832 7.14295 32.1071 8.34768 32.1071H12.2237C13.4284 32.1071 14.0702 31.9832 14.7391 31.6255C15.3643 31.2911 15.8625 30.7929 16.1969 30.1677C16.5546 29.4988 16.6785 28.857 16.6785 27.6523V23.7763C16.6785 22.5716 16.5546 21.9297 16.1969 21.2609C15.8625 20.6356 15.3643 20.1375 14.7391 19.8031C14.0702 19.4454 13.4284 19.3214 12.2237 19.3214ZM8.16671 21.8223L12.2237 21.8214C13.051 21.8214 13.3029 21.8701 13.5601 22.0076C13.7497 22.109 13.891 22.2503 13.9924 22.4399C14.1299 22.697 14.1785 22.949 14.1785 23.7763V27.6523C14.1785 28.4796 14.1299 28.7315 13.9924 28.9887C13.891 29.1783 13.7497 29.3196 13.5601 29.421C13.3029 29.5585 13.051 29.6071 12.2237 29.6071H8.34768C7.52036 29.6071 7.26842 29.5585 7.01126 29.421C6.82169 29.3196 6.68039 29.1783 6.579 28.9887C6.45205 28.7513 6.40083 28.5184 6.3937 27.8333L6.39282 23.7763C6.39282 22.949 6.44147 22.697 6.579 22.4399C6.68039 22.2503 6.82169 22.109 7.01126 22.0076C7.24864 21.8807 7.48157 21.8294 8.16671 21.8223ZM23.7763 19.3214H27.6523C28.857 19.3214 29.4988 19.4454 30.1677 19.8031C30.7929 20.1375 31.2911 20.6356 31.6255 21.2609C31.9832 21.9297 32.1071 22.5716 32.1071 23.7763V27.6523C32.1071 28.857 31.9832 29.4988 31.6255 30.1677C31.2911 30.7929 30.7929 31.2911 30.1677 31.6255C29.4988 31.9832 28.857 32.1071 27.6523 32.1071H23.7763C22.5715 32.1071 21.9297 31.9832 21.2608 31.6255C20.6356 31.2911 20.1374 30.7929 19.803 30.1677C19.4453 29.4988 19.3214 28.857 19.3214 27.6523V23.7763C19.3214 22.5716 19.4453 21.9297 19.803 21.2609C20.1374 20.6356 20.6356 20.1375 21.2608 19.8031C21.9297 19.4454 22.5715 19.3214 23.7763 19.3214ZM27.6523 21.8214L23.5953 21.8223C22.9101 21.8294 22.6772 21.8807 22.4398 22.0076C22.2503 22.109 22.109 22.2503 22.0076 22.4399C21.87 22.697 21.8214 22.949 21.8214 23.7763L21.8223 27.8333C21.8294 28.5184 21.8806 28.7513 22.0076 28.9887C22.109 29.1783 22.2503 29.3196 22.4398 29.421C22.697 29.5585 22.9489 29.6071 23.7763 29.6071H27.6523C28.4796 29.6071 28.7315 29.5585 28.9887 29.421C29.1782 29.3196 29.3195 29.1783 29.4209 28.9887C29.5585 28.7315 29.6071 28.4796 29.6071 27.6523L29.6062 23.5953C29.5991 22.9102 29.5479 22.6772 29.4209 22.4399C29.3195 22.2503 29.1782 22.109 28.9887 22.0076C28.7315 21.8701 28.4796 21.8214 27.6523 21.8214Z" fill="currentColor"/>
</svg>
